X: 4018
T: Blackwater, The
R: polka
M: 2/4
K: Gmajor
|:d|cB cB|cB Ad|c/c/B c/c/B|A2 Bc|
d2 c3/2d/4c/4|BA FA|G3/2A/4G/4 FE|D2 D:|
|:E|F/G/F/E/ FA|G/A/G/F/ GB|A/B/A/G/ Ad|c/d/e dc|
B>c dB|AF FA|G3/2A/4G/4 FE|D2 D:|

